assets/images/logo.svg

<svg version="1.1" id="Layer_1" xmlns="http://www.w3.org/2000/svg" xmlns:xlink="http://www.w3.org/1999/xlink" x="0px" y="0px"
	 width="100%" viewBox="0 0 1024 672" enable-background="new 0 0 1024 672" xml:space="preserve">
<path fill="#000000" opacity="1.000000" stroke="none" 
	d="
M554.171021,506.962219 
	C551.768921,507.202148 549.775635,507.408661 547.782410,507.408936 
	C443.790192,507.423340 339.798004,507.423492 235.805801,507.414459 
	C223.946320,507.413422 218.960022,502.320068 218.958725,490.207092 
	C218.948090,391.381195 218.945786,292.555267 218.949158,193.729370 
	C218.949585,181.189484 223.645218,176.548828 236.091400,176.554581 
	C278.088257,176.574005 320.089722,176.955505 362.080719,176.459518 
	C409.241455,175.902481 456.398132,176.266357 503.556213,176.151016 
	C552.208801,176.032013 600.862366,175.985901 649.514648,176.157516 
	C687.322083,176.290878 722.887451,184.839340 754.325684,206.671082 
	C790.614685,231.871353 813.501282,266.172302 821.400940,309.817261 
	C829.785156,356.139038 821.706482,399.385498 794.377930,438.120392 
	C770.713196,471.662109 738.695496,493.661926 698.046021,500.761719 
	C665.679565,506.414734 636.644226,498.264221 614.564148,472.520020 
	C592.831177,447.180389 599.040894,413.630127 616.718079,393.868622 
	C637.571350,370.556671 680.368713,359.497192 709.641235,370.110382 
	C718.147461,373.194489 725.593018,377.822693 729.987671,386.103394 
	C736.168640,397.749939 734.895813,409.089600 727.170654,419.394043 
	C715.256409,435.286255 698.340759,442.470795 679.260498,445.311462 
	C665.015015,447.432343 651.063416,445.083130 637.176758,442.137390 
	C634.936157,441.662109 632.688904,441.218781 629.858887,440.641113 
	C631.438904,448.694153 635.686890,454.576782 641.370056,459.252960 
	C656.396301,471.616791 673.702515,476.345886 692.772705,472.234924 
	C740.564514,461.932312 772.345764,432.458862 787.790710,387.003418 
	C803.595642,340.488464 797.175415,296.029175 766.240356,256.881653 
	C742.225281,226.491165 709.975586,209.644943 671.489441,206.419403 
	C635.773987,203.426086 599.887268,205.808426 564.079712,205.348083 
	C557.106934,205.258423 550.132019,205.335175 543.103149,205.838318 
	C547.938538,206.796738 552.812561,207.593781 557.602478,208.741806 
	C577.231934,213.446487 595.028198,221.769852 609.557678,236.099030 
	C625.710205,252.028885 631.445618,271.750000 628.086060,293.699951 
	C623.662903,322.598938 611.818115,348.131958 590.233398,368.509094 
	C583.548401,374.820068 576.128845,380.224365 568.135437,384.757629 
	C565.169128,386.439911 563.981323,388.469391 563.998169,391.922302 
	C564.155823,424.251831 564.116821,456.582214 564.233582,488.912018 
	C564.261780,496.730408 562.857910,503.581909 554.171021,506.962219 
M523.164001,401.832001 
	C517.339783,403.224976 511.516174,404.620514 505.691223,406.010345 
	C495.758728,408.380249 488.464233,404.405273 483.002655,396.372162 
	C478.962219,390.429443 477.107605,383.677917 476.918915,376.576782 
	C476.724823,369.273193 474.869476,362.465729 471.954590,355.852905 
	C467.095673,344.829803 460.259369,334.926636 454.275116,324.542114 
	C447.155487,312.187378 442.388916,298.981384 443.059570,284.676819 
	C444.416779,255.729874 457.793915,233.518692 482.960907,219.005066 
	C499.757233,209.318710 518.198853,205.300812 537.580139,205.482285 
	C533.779480,205.334869 529.990417,205.335602 526.201416,205.334747 
	C435.547119,205.314285 344.892822,205.313736 254.238632,205.209473 
	C250.035934,205.204651 247.998947,205.858475 248.008255,210.867401 
	C248.169952,297.855469 248.139862,384.843903 248.164276,471.832245 
	C248.166229,478.782227 248.209259,478.795319 254.934708,478.795929 
	C346.089264,478.804230 437.243805,478.809845 528.398376,478.811279 
	C534.887695,478.811371 534.971252,478.793976 534.983887,472.063171 
	C535.026123,449.566376 535.017822,427.069427 534.976868,404.572632 
	C534.973633,402.812500 535.388794,400.907166 534.038940,399.204834 
	C530.508484,399.233948 527.344849,400.957489 523.164001,401.832001 
M599.549377,293.055420 
	C599.622681,292.059326 599.589478,291.041687 599.785461,290.070343 
	C602.533020,276.450500 598.203369,265.186920 588.357849,255.788116 
	C576.636719,244.598877 562.300110,238.574860 546.659607,235.754059 
	C520.367126,231.012207 497.609222,237.548447 480.870209,259.228302 
	C471.122589,271.853149 468.313446,286.149597 474.748596,301.502563 
	C476.884796,306.599152 479.665649,311.311218 482.541534,315.988159 
	C492.327911,331.903198 501.671997,347.994354 505.070953,366.768341 
	C505.586761,369.617371 503.763489,373.438995 506.630463,375.150269 
	C509.427887,376.820038 512.704224,374.509705 515.724426,373.812958 
	C532.214355,370.008698 548.034180,364.500031 561.947083,354.547760 
	C582.878052,339.575256 593.336609,318.081848 599.549377,293.055420 
M701.759521,405.323090 
	C705.193848,400.725861 705.145203,400.224884 700.233215,397.658569 
	C698.339661,396.669281 696.303772,395.749756 694.226318,395.346924 
	C675.127502,391.643677 658.107056,396.593262 642.793274,408.124756 
	C641.340271,409.218903 639.292114,410.105743 639.069946,412.618713 
	C643.484619,414.757965 648.224487,415.485626 652.929688,416.309326 
	C670.465088,419.379181 686.993591,417.763245 701.759521,405.323090 
z"/>
</svg>

<?xml version="1.0" encoding="UTF-8" standalone="no"?>
<svg
   version="1.1"
   id="Layer_1"
   x="0px"
   y="0px"
   width="605.61078"
   viewBox="0 0 605.61078 331.37543"
   enable-background="new 0 0 1024 672"
   xml:space="preserve"
   sodipodi:docname="logo.svg"
   height="331.37543"
   inkscape:version="1.4.2 (ebf0e940, 2025-05-08)"
   xmlns:inkscape="http://www.inkscape.org/namespaces/inkscape"
   xmlns:sodipodi="http://sodipodi.sourceforge.net/DTD/sodipodi-0.dtd"
   xmlns:xlink="http://www.w3.org/1999/xlink"
   xmlns="http://www.w3.org/2000/svg"
   xmlns:svg="http://www.w3.org/2000/svg"><defs
   id="defs1"><clipPath
     clipPathUnits="userSpaceOnUse"
     id="clipPath3"><use
       x="0"
       y="0"
       xlink:href="#g2"
       id="use3" /></clipPath><clipPath
     clipPathUnits="userSpaceOnUse"
     id="clipPath4"><rect
       style="fill:#000000"
       id="rect4"
       width="628.07648"
       height="364.15747"
       x="210.62767"
       y="167.48706" /></clipPath><filter
     inkscape:label="Opacity"
     style="color-interpolation-filters:sRGB"
     id="filter6"
     x="0"
     y="0"
     width="1"
     height="1"><feColorMatrix
       values="1 0 0 0 0 0 1 0 0 0 0 0 1 0 0 0 0 0 5 -1 "
       result="colormatrix"
       id="feColorMatrix6" /><feComposite
       in2="colormatrix"
       operator="arithmetic"
       k2="0.198813"
       result="fbSourceGraphic"
       id="feComposite6"
       k1="0"
       k3="0"
       k4="0" /><feColorMatrix
       result="fbSourceGraphicAlpha"
       in="fbSourceGraphic"
       values="0 0 0 -1 0 0 0 0 -1 0 0 0 0 -1 0 0 0 0 1 0"
       id="feColorMatrix7" /><feColorMatrix
       id="feColorMatrix8"
       values="1 0 0 0 0 0 1 0 0 0 0 0 1 0 0 0 0 0 5 -1 "
       result="colormatrix"
       in="fbSourceGraphic" /><feComposite
       id="feComposite8"
       in2="colormatrix"
       operator="arithmetic"
       k2="0.198813"
       result="fbSourceGraphic"
       k1="0"
       k3="0"
       k4="0" /><feColorMatrix
       result="fbSourceGraphicAlpha"
       in="fbSourceGraphic"
       values="0 0 0 -1 0 0 0 0 -1 0 0 0 0 -1 0 0 0 0 1 0"
       id="feColorMatrix9" /><feColorMatrix
       id="feColorMatrix10"
       values="1 0 0 0 0 0 1 0 0 0 0 0 1 0 0 0 0 0 5 -1 "
       result="colormatrix"
       in="fbSourceGraphic" /><feComposite
       id="feComposite10"
       in2="colormatrix"
       operator="arithmetic"
       k2="0.198813"
       result="composite"
       k1="0"
       k3="0"
       k4="0" /></filter><clipPath
     clipPathUnits="userSpaceOnUse"
     id="clipPath10"><rect
       style="fill:#ffffff;filter:url(#filter6)"
       id="rect10"
       width="622.39752"
       height="360.52423"
       x="195.50816"
       y="156.94463"
       transform="matrix(1,0,0,0.96517413,15.226096,18.154147)" /></clipPath></defs><sodipodi:namedview
   id="namedview1"
   pagecolor="#ffffff"
   bordercolor="#000000"
   borderopacity="0.25"
   inkscape:showpageshadow="2"
   inkscape:pageopacity="0.0"
   inkscape:pagecheckerboard="0"
   inkscape:deskcolor="#d1d1d1"
   showborder="true"
   inkscape:zoom="1.115043"
   inkscape:cx="235.86535"
   inkscape:cy="159.63511"
   inkscape:window-width="2032"
   inkscape:window-height="1075"
   inkscape:window-x="0"
   inkscape:window-y="25"
   inkscape:window-maximized="0"
   inkscape:current-layer="Layer_1" />
<g
   id="g3"
   clip-path="url(#clipPath10)"
   transform="translate(-218.94757,-176.0453)"><g
     inkscape:label="Clip"
     id="g2"><g
       id="g1"><path
         fill="#000000"
         opacity="1"
         stroke="none"
         d="m 554.17102,506.96222 c -2.4021,0.23993 -4.39539,0.44644 -6.38861,0.44672 -103.99222,0.0144 -207.98441,0.0146 -311.97661,0.006 -11.85948,-10e-4 -16.84578,-5.09439 -16.84708,-17.20737 -0.0106,-98.8259 -0.0129,-197.65182 -0.01,-296.47772 4.3e-4,-12.53989 4.69606,-17.18054 17.14224,-17.17479 41.99686,0.0194 83.99832,0.40092 125.98932,-0.0951 47.16073,-0.55704 94.31741,-0.19316 141.47549,-0.3085 48.65259,-0.11901 97.30616,-0.16512 145.95844,0.007 37.80743,0.13336 73.3728,8.68182 104.81103,30.51356 36.289,25.20027 59.1756,59.50122 67.07526,103.14618 8.38422,46.32178 0.30554,89.56824 -27.02301,128.30313 -23.66473,33.54172 -55.68243,55.54154 -96.33191,62.64133 -32.36645,5.65301 -61.40179,-2.4975 -83.48187,-28.2417 -21.73297,-25.33963 -15.52326,-58.88989 2.15393,-78.6514 20.85327,-23.31195 63.65063,-34.37143 92.92316,-23.75824 8.50622,3.08411 15.95178,7.71231 20.34643,15.99301 6.18097,11.64655 4.90814,22.98621 -2.81702,33.29065 -11.91424,15.89221 -28.82989,23.07675 -47.91015,25.91742 -14.24549,2.12088 -28.19708,-0.22833 -42.08374,-3.17407 -2.2406,-0.47528 -4.48786,-0.91861 -7.31787,-1.49628 1.58001,8.05304 5.828,13.93567 11.51117,18.61185 15.02624,12.36383 32.33245,17.09293 51.40264,12.98196 47.79181,-10.30261 79.57306,-39.77606 95.01801,-85.2315 15.80493,-46.51496 9.38471,-90.97425 -21.55035,-130.12177 -24.01508,-30.39049 -56.26477,-47.23671 -94.75092,-50.46225 -35.71545,-2.99331 -71.60217,-0.61097 -107.40973,-1.07132 -6.97278,-0.0897 -13.94769,-0.0129 -20.97656,0.49024 4.83539,0.95842 9.70941,1.75546 14.49933,2.90349 19.62945,4.70468 37.42572,13.02804 51.9552,27.35722 16.15252,15.92985 21.88794,35.65097 18.52838,57.60092 -4.42316,28.89899 -16.26794,54.43201 -37.85266,74.80914 -6.685,6.31098 -14.10456,11.71527 -22.09796,16.24854 -2.96631,1.68228 -4.15412,3.71176 -4.13727,7.16467 0.15765,32.32953 0.11865,64.65991 0.23541,96.98972 0.0282,7.81839 -1.37567,14.66989 -10.06256,18.0502 M 523.164,401.832 c -5.82422,1.39298 -11.64783,2.78851 -17.47278,4.17834 -9.93249,2.36991 -17.22699,-1.60507 -22.68857,-9.63818 -4.04043,-5.94272 -5.89505,-12.69424 -6.08373,-19.79538 -0.1941,-7.30359 -2.04944,-14.11105 -4.96433,-20.72387 -4.85892,-11.02311 -11.69522,-20.92627 -17.67947,-31.3108 -7.11963,-12.35473 -11.8862,-25.56073 -11.21555,-39.86529 1.35721,-28.94695 14.73435,-51.15813 39.90134,-65.67175 16.79632,-9.68636 35.23794,-13.70426 54.61923,-13.52279 -3.80066,-0.14741 -7.58972,-0.14668 -11.37872,-0.14753 -90.6543,-0.0205 -181.3086,-0.021 -271.96279,-0.12528 -4.2027,-0.005 -6.23968,0.649 -6.23038,5.65793 0.1617,86.98807 0.13161,173.9765 0.15603,260.96484 0.002,6.94999 0.045,6.96308 6.77043,6.96369 91.15455,0.008 182.30909,0.0139 273.46367,0.0154 6.48931,9e-5 6.57287,-0.0173 6.58551,-6.74811 0.0422,-22.49679 0.0339,-44.99374 -0.007,-67.49054 -0.003,-1.76013 0.41192,-3.66546 -0.93793,-5.3678 -3.53046,0.0291 -6.69409,1.75266 -10.87494,2.62717 M 599.5494,293.05547 c 0.0733,-0.99609 0.0401,-2.01373 0.23608,-2.98508 2.74756,-13.61984 -1.58209,-24.88342 -11.42761,-34.28222 -11.72113,-11.18924 -26.05774,-17.21326 -41.69824,-20.03406 -26.29248,-4.74185 -49.05039,1.79439 -65.7894,23.47424 -9.74762,12.62485 -12.55676,26.9213 -6.12161,42.27426 2.1362,5.09659 4.91705,9.80866 7.79293,14.4856 9.78638,15.91504 19.13047,32.00619 22.52942,50.78018 0.51581,2.84903 -1.30746,6.67065 1.55951,8.38193 2.79743,1.66977 6.07376,-0.64057 9.09397,-1.33731 16.48992,-3.80426 32.30975,-9.31293 46.22265,-19.2652 20.93097,-14.9725 31.38953,-36.46591 37.6023,-61.49234 m 102.21014,112.26767 c 3.43433,-4.59723 3.38568,-5.09821 -1.52631,-7.66452 -1.89355,-0.98929 -3.92944,-1.90881 -6.00689,-2.31165 -19.09882,-3.70324 -36.11926,1.24634 -51.43305,12.77784 -1.453,1.09414 -3.50116,1.98098 -3.72332,4.49395 4.41467,2.13926 9.15454,2.86692 13.85974,3.69062 17.5354,3.06985 34.0639,1.45391 48.82983,-10.98624 z"
         id="path1" /></g></g></g>
</svg>
